img/fridge.svg

<?xml version="1.0" encoding="UTF-8"?>
<svg width="39px" height="48px" viewBox="0 0 39 48" version="1.1" xmlns="http://www.w3.org/2000/svg" xmlns:xlink="http://www.w3.org/1999/xlink">
    <!-- Generator: Sketch 51.2 (57519) - http://www.bohemiancoding.com/sketch -->
    <title>fridge</title>
    <desc>Created with Sketch.</desc>
    <defs></defs>
    <g id="Events" stroke="none" stroke-width="1" fill="none" fill-rule="evenodd">
        <g id="Assets" transform="translate(-351.000000, -241.000000)">
            <g id="Icon" transform="translate(344.000000, 239.000000)">
                <circle id="Oval" fill-opacity="0" fill="#D8D8D8" cx="26" cy="26" r="26"></circle>
                <g id="006-fridge" transform="translate(7.000000, 2.000000)" fill="#333333" fill-rule="nonzero">
                    <path d="M29.6,5.6 L28,5.6 C27.5584,5.6 27.2,5.9576 27.2,6.4 C27.2,6.8424 27.5584,7.2 28,7.2 L29.6,7.2 C30.0416,7.2 30.4,6.8424 30.4,6.4 C30.4,5.9576 30.0416,5.6 29.6,5.6 Z" id="Shape"></path>
                    <path d="M6.4,17.6 L4,17.6 L4,28.8 L13.6,28.8 L13.6,17.6 L11.2,17.6 L6.4,17.6 Z M9.6,19.2 L9.6,21.6 L8,21.6 L8,19.2 L9.6,19.2 Z M12,19.2 L12,27.2 L5.6,27.2 L5.6,19.2 L6.4,19.2 L6.4,23.2 L11.2,23.2 L11.2,19.2 L12,19.2 Z" id="Shape"></path>
                    <path d="M16,16 C15.5584,16 15.2,16.3576 15.2,16.8 L15.2,29.6 C15.2,30.0424 15.5584,30.4 16,30.4 C16.4416,30.4 16.8,30.0424 16.8,29.6 L16.8,16.8 C16.8,16.3576 16.4416,16 16,16 Z" id="Shape"></path>
                    <path d="M22.4,16 C21.9584,16 21.6,16.3576 21.6,16.8 L21.6,29.6 C21.6,30.0424 21.9584,30.4 22.4,30.4 C22.8416,30.4 23.2,30.0424 23.2,29.6 L23.2,16.8 C23.2,16.3576 22.8416,16 22.4,16 Z" id="Shape"></path>
                    <path d="M12,36 C12,36.4424 12.3584,36.8 12.8,36.8 L25.6,36.8 C26.0416,36.8 26.4,36.4424 26.4,36 C26.4,35.5576 26.0416,35.2 25.6,35.2 L12.8,35.2 C12.3584,35.2 12,35.5576 12,36 Z" id="Shape"></path>
                    <path d="M36.664,0 L1.736,0 C0.7792,0 0,0.7792 0,1.736 L0,32 L0,33.6 L0,45.656 C0,46.9488 1.0512,48 2.344,48 L36.056,48 C37.348,48 38.4,46.9488 38.4,45.656 L38.4,33.6 L38.4,32 L38.4,1.736 C38.4,0.7792 37.6208,0 36.664,0 Z M1.6,1.736 C1.6,1.6608 1.6608,1.6 1.736,1.6 L18.4,1.6 L18.4,32 L1.6,32 L1.6,1.736 Z M36.8,45.656 C36.8,46.0664 36.4664,46.4 36.056,46.4 L2.344,46.4 C1.9336,46.4 1.6,46.0664 1.6,45.656 L1.6,33.6 L36.8,33.6 L36.8,45.656 Z M20,32 L20,1.6 L36.664,1.6 C36.7392,1.6 36.8,1.6608 36.8,1.736 L36.8,32 L20,32 Z" id="Shape"></path>
                </g>
            </g>
        </g>
    </g>
</svg>

<svg xmlns="http://www.w3.org/2000/svg" width="39" height="48" fill-rule="evenodd"><circle fill-opacity="0" fill="#d8d8d8" cx="19" cy="24" r="26"/><path d="M29.6 5.6H28a.8.8 0 1 0 0 1.6h1.6a.8.8 0 1 0 0-1.6zm-23.2 12H4v11.2h9.6V17.6H6.4zm3.2 1.6v2.4H8v-2.4h1.6zm2.4 0v8H5.6v-8h.8v4h4.8v-4h.8zm4-3.2a.8.8 0 0 0-.8.8v12.8a.8.8 0 1 0 1.6 0V16.8a.8.8 0 0 0-.8-.8zm6.4 0a.8.8 0 0 0-.8.8v12.8a.8.8 0 0 0 1.6 0V16.8a.8.8 0 0 0-.8-.8zM12 36a.8.8 0 0 0 .8.8h12.8a.8.8 0 0 0 0-1.6H12.8a.8.8 0 0 0-.8.8zM36.664 0H1.736A1.74 1.74 0 0 0 0 1.736v43.92C0 46.95 1.05 48 2.344 48h33.712a2.35 2.35 0 0 0 2.344-2.344V1.736A1.74 1.74 0 0 0 36.664 0zM1.6 1.736c0-.075.06-.136.136-.136H18.4V32H1.6V1.736zm35.2 43.92c0 .4-.334.744-.744.744H2.344c-.4 0-.744-.334-.744-.744V33.6h35.2v12.056zM20 32V1.6h16.664c.075 0 .136.06.136.136V32H20z" fill="#333" fill-rule="nonzero"/></svg>
